X:5909330
%%MIDI ratio 2 1
T:Peter's Schottische in Bb & F
C:Peter Yarensky, June 26, 2020
H:This came to me the same day as the Ash Swamp Jig. The A part was largely
H:complete, and the B part didn't take much longer. The dotted rhythm should be in
H:a 2:1 (relaxed) ratio rather than the 3:1 ratio implied by the notation.
N:From NH Country Dance (URL below), along with many New England, Canadian & Swedish
N:tunes, and resources for abc notation and New England traditional music and dance.
%
N: Note #1: To preserve formatting (font, spacing, etc.), use the
N: file header at the URL below; just follow accompanying instructions.
%
N: Note #2: This abc code is optimized for use with abcm2ps, which is used by
N: EasyABC and other abc apps. To use abc2svg for display or printing look to see if there
N: is a file optimized for abc2svg. If not you may need to adjust the spacing in places.
%
Z:abc-transcription Peter Yarensky. I rely heavily on careful listening to the
Z:named sources aided by software to hear details. While not perfect, known
Z:substantial differences from other written sources receive careful attention.
Z:abc-copyright Peter Yarensky. You may reproduce this tune freely but
Z:please include the entire abc file including all the notes.
%%writefields HQSD
F:Tunes Home Page - https://fiddle-tunes.nhcountrydance.com/
F:abc Header & its Usage - https://fiddle-tunes.nhcountrydance.com/header-page/
M:4/4
L:1/8
R:Schottische
G:Couples Dances ~ Schottisches
N: Tune Tags ~ Schottische, New England Repertoire, Peter Yarensky, June 26, 2020
K:Bb
F2 |:\
"Bb" ((3BcB) F>B d>Bd>f | "Bb" b>fd>f "Eb" g>e"F7"c>e | "Bb" f>dB>d "F" c>BA>B | "C7" c>f=e>g "F7" f4 |
"Bb" ((3BcB) F>B d>Bd>f | "Bb" b>fd>f "Eb" g>e"F7"c>e | "Bb" f>dB>d "F7" e>cA>c |1\
"Bb" .B2.d2 .B2 d>c :|2 "Bb" .B2.d2 .B2 ||
K:F
A>B |:\
"F" ((3cdc) A>c f>cA>c | "F" f>cg>c a>cA>c | "C" g>cg>a b>ga>f  | "C7" ((3gag) ((3fed) c2A>B |
"F" ((3cdc) A>c f>cA>c | "F" f>cg>c a>cA>c | "C7" g>cg>f e>bg>e |1 "F" .f2.a2 .f2z2 :|2 "F" .f2.a2 .f2 |]

